launcher/android/assets/skins/day/svg/listrec_selected.svg

<svg enable-background="new 0 0 34.50 34.00" height="34.0001" viewBox="0 0 34.5 34" width="34.5" xmlns="http://www.w3.org/2000/svg"><path d="m8.99998 1h16.50002c4.4183 0 8 3.58173 8 8v16.0001c0 4.4182-3.5817 8-8 8h-16.50002c-4.41827 0-7.999995-3.5818-7.999995-8v-16.0001c0-4.41827 3.581725-8 7.999995-8z" fill="#ffd240" stroke="#000" stroke-linejoin="round" stroke-width=".6"/></svg>

﻿<?xml version="1.0" encoding="utf-8"?>
<!DOCTYPE svg PUBLIC "-//W3C//DTD SVG 1.1//EN" "http://www.w3.org/Graphics/SVG/1.1/DTD/svg11.dtd">
<svg xmlns="http://www.w3.org/2000/svg" xmlns:xlink="http://www.w3.org/1999/xlink" version="1.1" baseProfile="full" width="34.5" height="34.0001" viewBox="0 0 34.50 34.00" enable-background="new 0 0 34.50 34.00" xml:space="preserve">
	<path fill="#FFD240" fill-opacity="1" stroke-width="0.6" stroke-linejoin="round" stroke="#000000" stroke-opacity="1" d="M 8.99998,1L 25.5,1C 29.9183,1 33.5,4.58173 33.5,9L 33.5,25.0001C 33.5,29.4183 29.9183,33.0001 25.5,33.0001L 8.99998,33.0001C 4.58171,33.0001 0.999985,29.4183 0.999985,25.0001L 0.999985,9C 0.999985,4.58173 4.58171,1 8.99998,1 Z "/>
</svg>
